X:1
T:8 Lieder and Romances, Op.14
T:Vor dem Fenster
T:1. Vor dem Fenster
T:Johannes Brahms
T:Volkslied
T:8 Lieder and Romances, Op.14
T:Creative Commons copyright waiver (CC0 1.0 Universal) 
T:Creative Commons copyright waiver (CC0 1.0 Universal) 
T:Creative Commons copyright waiver (CC0 1.0 Universal) 
C:Johannes Brahms
Z:Volkslied
Z:Creative Commons copyright waiver (CC0 1.0 Universal)
Z:
%%score ( 1 2 ) { ( 3 5 ) | 4 }
L:1/8
Q:1/4=70
M:3/8
K:Bb
V:1 treble nm="Singstimme\nVoice"
V:2 treble 
V:3 treble nm="Pianoforte"
V:5 treble 
V:4 bass 
V:1
"^Andante" z3 | z2!p! D |: (GA) B | (dc) B | (AB) c | (BA) G | z3 | z2 G | (A^c) d | (A^c) d | %10
w: |1. Soll|sich * der|Mond * nicht|hel- * ler|schei- * nen,||soll|sich * die|Sonn * nicht|
w: ||er _ wohl|auf * die|Gas- * se|trat, _ _||da|fing * er|an * ein|
w: ||still, * steh|still, * mein|fei- * nes|Lieb, _ _||steh|still, * steh|still * und|
 =c2 =B | A2 c | (A_B) c | (dc) B | (cd) e | (fe) d | z3 | z2 d | A2 d | B B d | (Adc | Bc) A | %22
w: früh auf-|gehn, so|will * ich|die- * se|Nacht * gehr|frei- * en,||wie|ich zu-|vor * auch|hab _ _|_ _ ga-|
w: Lied und|sang, er|sang * aus|schö- ner, aus|hel- * ler|Stim- * me,||dass|sein feins|Lieb * zum|Bett _ _|_ _ aus-|
w: rühr dich|nicht, sonst|weckst * du|Va- ter, sonst|weckst * du|Mut- * ter,||das|ist uns|Bei- den nicht|wohl _ _|_ _ ge-|
 G2 z | z3 | z3 | z3 |1,2 z2 D :|3 z2"^più "!mp! d ||[K:G] d d d |"^cresc." d c B | g g g | %31
w: tan.||||2. Als||freg ich nach|Va- ter, was|frag ich nach|
w: sprang.||||3. Steh|4. Was||||
w: tan.|||||||||
 g f"^espress." e | (dB)!<(! d | e B!<)! e |!f! (f B) ^d |!>(! f3-!>)! |!mf! f2 z | z2 d | d2 d | %39
w: Mut- ter, vor|dei- * nem|Schla- fen- ster|muss * ich|stehn,|_|ich|will mein|
w: ||||||||
w: ||||||||
 (dc) B | g2 g | (gf) e | d"^dim." B c | (dB) c | (dB) c | d3- |!p! d z2 | z2!p! D ||[K:Bb] G A B | %49
w: schö- * nes|Lieb an-|schau- * en,|um das ich|muss * so|fer- * ne|gehn.|_|Da|stan- den die|
w: ||||||||||
w: ||||||||||
 (dc) B | (AB) c | (BA) G | z3 | z2 G | (A^c) d | (A^c) d | =c2 =B | A2 c | (A_B) c | (dc) B | %60
w: zwei * wohl|bei * ein-|en- * der||mit|ih- * ren|zar- * ten|Mün- de-|lein, der|Wäch- * ter|blies * wohl|
w: |||||||||||
w: |||||||||||
 (cd) e | (fe) d | c2 z | z2 d | A2 d | B2 d | (Ad) c | (Bc) A | G2 z | z3 | z3 | z3 | %72
w: in * sein|Hör- * ne-|lein,|a-|de, a-|de, es|muss * ge-|schie- * den|sein.||||
w: ||||||||||||
w: ||||||||||||
 z2!mf!"^poco " d ||[K:G] d2 d |"^cresc." (dc) B | g2 g | (gf) e | d B d |!<(! (eB) e | (fB) ^c | %80
w: Ach|Schei- den,|Schei- * den|ü- ber|Schei- * den,|Schei- den tut|mei- * nem|jun- * gen|
w: ||||||||
w: ||||||||
 (fB)!<)! ^c |!fff!!>(! f3-!>)! |!mf! f z d | d2 d | (dc) B | g2 g | (gf) e |"^dim." (dB) c | %88
w: Her- * zen|weh,|_ dass|ich mein|schön * Herz-|lieb muss|mei- * den,|das * ver-|
w: ||||||||
w: ||||||||
 (dB) c | (dB) c |!>(! d3-!>)! |!p! d2 z | z3 | z3 | z3 | z3 | z3 |] %97
w: gess * ich|nim- * mer-|mehr.|_||||||
w: |||||||||
w: |||||||||
V:2
 x3 | x3 |: x3 | x3 | x3 | (BAG) | x3 | x3 | x3 | x3 | x3 | x3 | x3 | d c B | x3 | x3 | x3 | x3 | %18
 x3 | B2 x | x3 | x3 | x3 | x3 | x3 | x3 |1,2 x3 :|3 x3 ||[K:G] x3 | x3 | x3 | x3 | x3 | x3 | x3 | %35
 x3 | x3 | x3 | x3 | x3 | x3 | x3 | x3 | x3 | x3 | x3 | x3 | x3 ||[K:Bb] x3 | x3 | x3 | x3 | x3 | %53
 x3 | x3 | x3 | x3 | x3 | x3 | x3 | x3 | x3 | x3 | x3 | x3 | x3 | x3 | x3 | x3 | x3 | x3 | x3 | %72
 x3 ||[K:G] x3 | x3 | x3 | x3 | x3 | x3 | x3 | x3 | x3 | x3 | x3 | x3 | x3 | x3 | x3 | x3 | x3 | %90
 x3 | x3 | x3 | x3 | x3 | x3 | x3 |] %97
V:3
 z3 | z2 D |: ([B,G][DA][GB]) | ([Bd][Ac][GB]) | ([DA][GB][Ac]) | ([GB][DA][B,G]) | %6
 ([DA][GB][Ac]) | ([GB][DA][B,G]) | (A^cd) | (A^cd) | [=E=c]2 [D=B] | ([CA][=E=B][Ac]) | %12
 ([^FA][G_B][Ac] | [Bd][Ac][GB]) | ([Ac][Bd][ce] | [df][ce][Bd]) | ([Ac][Bd][Ac] | [GB][Ac][GB]) | %18
 ([^FA][Bd][Ac] | [GB][Ac][GB]) | ([^FA][Bd][Ac] | [GB][Ac][DA]) | ([=B,G][D=B][Gd]) | %23
 ([eg]G[eg]) | ([df]_B[df]) | ([ce][Bd][Ac] |1,2 [GB][Ac][DA]) :|3 ([GB][Ac][DA]) || %28
[K:G] ([B,G][DA][GB] | [Bd][Ac][GB]) | ([Ec][Gd][ce] | [eg][df][ce]) | ([Bd][GB][Bd]) | (eBe) | %34
 ([^df]Bd- | [df]B^d) | ([=df][^ce][Bd] | [A=c][GB][DA]) | ([B,G][DA][GB] | [Bd][Ac][GB]) | %40
 ([Ec][Gd][ce] | [eg][df][ce]) | ([Bd]"_dim."[GB][Ac]) | ([Bd][GB][Ac]) | ([Bd][GB][Ac]) | %45
 ([Ad][GB][Ac]) |!>(! ([_Bd][Ac][GB] | [Ac][G_B]!>)!!p![DA]) ||[K:Bb] ([B,G][DA][GB]) | %49
 ([Bd][Ac][GB]) | ([DA][GB][Ac]) | ([GB][DA][B,G]) | ([DA][GB][Ac]) | ([GB][DA][B,G]) | (A^cd) | %55
 (A^cd) | [=E=c]2 [D=B] | ([CA][=E=B][Ac]) | ([^FA][G_B][Ac] | [Bd][Ac][GB]) | ([Ac][Bd][ce] | %61
 [df][ce][Bd]) | ([Ac]B[Ac] | [GB][Ac][GB]) | ([^FA][Bd][Ac] | [GB][Ac][GB]) | ([^FA][Bd][Ac] | %67
 [GB][Ac][DA]) | ([=B,G]"_cresc."[D=B][Gd]) | ([eg]G[eg]) | ([df]_B[df]) | ([ce][Bd][Ac] | %72
!<(! [GB][Ac]!<)!!mf![DA]) ||[K:G] ([B,G][DA][GB] | [Bd][Ac][GB]) | ([Ec][Gd][ce] | [eg][df][ce]) | %77
 ([Bd][GB][Bd]) | (eBe) | ([^df]Bd- | [df]B^d) | ([df]!>(![^ce][Bd] | [A=c][GB]!>)![DA]) | %83
!<(! ([B,G][DA][GB]!<)! |!mf! [Bd][Ac][GB]) | ([Ec][Gd][ce] | [eg][df][ce]) | ([Bd][GB][Ac]) | %88
 ([Bd][GB][Ac]) | ([Bd][GB][Ac]) | ([Bd][GB][Ac]) | (dGB) | (dGB) | (dGB) | (dGA) | B3- | B2 z |] %97
V:4
!p! G,,2 [D,B,] | G,,2 [D,B,] |:!p! G,,2 [D,B,] | G,,2 [D,B,] | D,,2 [D,A,] | G,,2 [D,G,] | %6
 D,,2 [D,A,] | G,,2 [D,G,] | =F,,2 [D,A,] | D,,2 [D,A,] | =E,,2 [=E,^G,] | A,,2 [=E,A,] | %12
 D,,2 [D,^F,] | G,,2 [D,G,] | =F,,2 [F,A,] | B,,2 [F,B,] | F,,2 [F,A,] | G,,2 [D,B,] | %18
 D,,2 [D,G,] | G,,2 [D,G,] | D,,2 [D,A,] | D,,2 [D,^F,] |!<(! G,,2 [G,=B,]!<)! | C,,2 [E,C] | %24
 D,,2 [F,_B,] | D,,2 [D,^F,] |1,2 D,,2 [D,^F,] :|3!p! D,,2 [D,^F,] || %28
[K:G]"^più "!mp! G,,2 [D,G,] |"^cresc." G,,2 [D,G,] | C,,2 [E,C] | C,,2 [E,C] |!<(! G,,2 [G,B,] | %33
 E,,2 [E,B,]!<)! |!f! B,,,2 [F,B,] | B,,,2 [F,B,] |!>(! B,,,2 [D,F,] | D,,2!>)!!mp! [D,A,] | %38
!<(! G,,2!<)! [D,G,] | G,,2 [D,G,] |!mp!!<(! C,,2!<)! [E,C] | C,,2 [E,C] | G,,2 [D,B,] | %43
 G,,2 [D,B,] | D,,2 [D,G,] | D,,2 [D,G,] | G,,,2 [D,G,] | D,,2 [D,^F,] ||[K:Bb]!p! G,,2 [D,G,] | %49
 G,,2 [D,G,] | D,,2 [D,A,] | G,,2 [D,G,] | D,,2 [D,A,] | G,,2 [D,G,] | =F,,2 [D,A,] | D,,2 [D,A,] | %56
 =E,,2 [=E,^G,] | A,,2 [=E,A,] |!pp! D,,2 [D,^F,] | G,,2 [D,G,] | =F,,2 [F,A,] | B,,2 [F,B,] | %62
 F,,2 [F,A,] | G,,2 [D,G,] | D,,2 [D,^F,] | G,,2 [D,G,] | D,,2 [D,^F,] | D,,2 [D,^F,] | %68
 G,,2 [D,G,] | C,,2 [E,C] | D,,2 [F,B,] | D,,2 [D,^F,] | D,,2 [D,^F,] ||[K:G]"^più " G,,2 [D,G,] | %74
"^cresc." G,,2 [D,G,] | C,,2 [E,G,C] | C,,2 [E,G,C] | G,,2 [D,G,B,] |!<(! E,,2 [E,G,B,] | %79
 B,,,2 [^D,F,B,] | B,,,2!<)! [^D,F,B,] |!ff! B,,,2 [=D,F,B,] | D,,2 [D,F,A,] | G,,2 [D,G,B,] | %84
 G,,2 [D,G,B,] | C,,2 [E,G,C] | C,,2 [E,G,C] |"^dim." G,,2 [D,G,B,] | G,,2 [D,G,B,] | D,,2 [D,G,] | %90
 D,,2 [D,G,] | G,,,2 [D,G,] | G,,,2 [D,G,] |!>(! C,,2 [C,G,] | C,,2 [C,G,]!>)! |!pp! [G,,,G,,]3- | %96
 [G,,,G,,]2 z |] %97
V:5
 x3 | x3 |: x3 | x3 | x3 | x3 | x3 | x3 | D3 | =F3 | x3 | x3 | x3 | x3 | x3 | x3 | x3 | x3 | x3 | %19
 x3 | x3 | x3 | x3 | x3 | x3 | x3 |1,2 x3 :|3 x3 ||[K:G] x3 | x3 | x3 | x3 | x3 | G3 | F3 | F3 | %36
 F2 z | x3 | x3 | x3 | x3 | x3 | x3 | x3 | x3 | x3 | x3 | x3 ||[K:Bb] x3 | x3 | x3 | x3 | x3 | x3 | %54
 D3 | =F3 | x3 | x3 | x3 | x3 | x3 | x3 | x3 | x3 | x3 | x3 | x3 | x3 | x3 | x3 | x3 | x3 | x3 || %73
[K:G] x3 | x3 | x3 | x3 | x3 | G3 | F3 | F3 | F2 z | x3 | x3 | x3 | x3 | x3 | x3 | x3 | x3 | x3 | %91
 =F3 | =F3 | =F3 | E3 | D3- | D2 x |] %97

